src/assets/img/bio/small-circle--red.svg

<svg fill="none" height="35" viewBox="0 0 80 35" width="80" xmlns="http://www.w3.org/2000/svg"><path clip-rule="evenodd" d="m30.6814 3.79332c-6.1935.02448-11.804 1.64016-17.0105 3.94422-5.73386 2.53806-8.72479 6.52436-9.31571 11.52616-.35715 3.0179 1.05196 5.4865 3.95329 7.5428 1.85582 1.3141 4.04552 2.1826 6.40392 2.7917 2.9442.7608 5.9728 1.3542 9.1027 1.3846 7.2429.0714 21.6064.2993 32.0592-1.3846 10.4529-1.684 12.8045-1.3835 16.0092-3.3001 4.9075-2.9351 4.9545-4.6065 4.9545-8.9791 0-1.7189-1.1013-3.0538-3.221-4.9214-2.1198-1.8675-8.3226-5.23668-8.8902-5.42174-8.6208-2.8152-19.4569-4.04913-30.3921-3.18352-.3416 0-1.9974-.00489-3.6533.00098zm34.9938 0c3.491 1.1721 7.7859 4.25991 10.2339 6.41418 2.1572 1.8996 6.7609 9.0562 2.0319 15.459-4.7289 6.4027-7.6089 5.3163-20.6469 7.5117-8.1717 1.3761-29.514 1.9397-38.0271.7284-2.8714-.4083-5.6507-1.0075-8.3247-1.88-2.90655-.9479-5.3845-2.3442-7.38842-4.1978-2.30651-2.1337-3.5857446-4.567-3.55327672-7.3411.07792282-6.8015 3.82341672-12.18027 11.61439672-15.60061 5.7559-2.52829 12.0118-4.258541 18.8625-4.24679 1.452.001958 2.9052 0 3.2923 0 11.552-.957657 22.517.001958 31.9054 3.15302z" fill="#f87171" fill-rule="evenodd"/></svg>

<svg width="80" height="35" viewBox="0 0 80 35" fill="none" xmlns="http://www.w3.org/2000/svg">
<path fill-rule="evenodd" clip-rule="evenodd" d="M30.6814 3.79332C24.4879 3.8178 18.8774 5.43348 13.6709 7.73754C7.93704 10.2756 4.94611 14.2619 4.35519 19.2637C3.99804 22.2816 5.40715 24.7502 8.30848 26.8065C10.1643 28.1206 12.354 28.9891 14.7124 29.5982C17.6566 30.359 20.6852 30.9524 23.8151 30.9828C31.058 31.0542 45.4215 31.2821 55.8743 29.5982C66.3272 27.9142 68.6788 28.2147 71.8835 26.2981C76.791 23.363 76.838 21.6916 76.838 17.319C76.838 15.6001 75.7367 14.2652 73.617 12.3976C71.4972 10.5301 65.2944 7.16092 64.7268 6.97586C56.106 4.16066 45.2699 2.92673 34.3347 3.79234C33.9931 3.79234 32.3373 3.78745 30.6814 3.79332ZM65.6752 3.79332C69.1662 4.96542 73.4611 8.05323 75.9091 10.2075C78.0663 12.1071 82.67 19.2637 77.941 25.6665C73.2121 32.0692 70.3321 30.9828 57.2941 33.1782C49.1224 34.5543 27.7801 35.1179 19.267 33.9066C16.3956 33.4983 13.6163 32.8991 10.9423 32.0266C8.03575 31.0787 5.5578 29.6824 3.55388 27.8288C1.24737 25.6951 -0.0318646 23.2618 0.000603285 20.4877C0.0785261 13.6862 3.82402 8.30743 11.615 4.88709C17.3709 2.3588 23.6268 0.628549 30.4775 0.6403C31.9295 0.642258 33.3827 0.6403 33.7698 0.6403C45.3218 -0.317357 56.2868 0.642258 65.6752 3.79332Z" fill="#F87171"/>
</svg>
